X:1
T:Title
%%score { ( 1 3 ) | ( 2 4 ) }
L:1/8
Q:1/4=108
M:2/4
K:D
V:1 bass nm="Grand Piano"
V:3 bass 
V:2 bass 
V:4 bass 
V:1
 [F,A,D]2 [G,CE]2 | [G,CE]2 [F,DF]2 | [A,DF]2 [DFA]2 | [FA]4 | [B,Gd]2 [GB]2 | [FA]2 z B, | E4- | %7
w: A.~Mary~R.~Dobson *|||||||
 E4 | D2 [CE]2 | [CE]2 F2 | F2 A2 | A4 | z2 [Af]2 | [^Ge]2 [Gc]2 | A4- | A4 | [Dd]2 [Dc]2 | %17
w: ||||||||||
 [Gd]2 [GB]2 | [FA]2 [DF]2 | [FA]4 | [Fd]2 [Fc]2 | z2 B2 | z2 [DF]2[K:bass] | E4 | [F,D]2 [G,CE]2 | %25
w: ||||||||
 [G,CE]2 [F,DF]2 | [A,DF]2 [DFA]2 | [FA]4 | [B,Gd]2 [GB]2 | [DA]2 [A,DF]2 | E4[K:bass] | %31
w: ||||||
[M:6/4] .[F,A,D]6 z6 |[M:2/4] [G,B,D]4 | [F,A,D]4 |] %34
w: |||
V:2
 D,2 A,,2 | A,,2 D,2 | D,2 D,2 | z2 =C2 | G,,2 [G,,G,]2 | [D,A,]2 [F,A,]^G, | A,4 | A,,4 | %8
 [D,F,]2 [A,,A,]2 | [A,,A,]2 [D,A,D]2 | [D,A,D]2 [D,F,D]2 | [D,D]4 | E,2 .[E,A,]2 | [E,D]2 [E,D]2 | %14
 [A,C]4 | A,2 G,2 | [B,,F,]2 [A,,F,]2 | [G,,B,]2 [B,,G,]2 | [D,A,]2 [D,A,]2 | [D,D]4 | %20
 [D,A,]2 [D,A,]2 | [D,B,]2 [B,D]C | D,2 F,^G, | [A,C]2 z G, | D,2 A,,2 | A,,2 D,2 | D,2 D,2 | %27
 z2 =C2 | G,,2 [G,,G,]2 | [A,,F,]2 A,,2 | A,,2 z D |[M:6/4] .D,6 z6 |[M:2/4] G,,4 | D,4 |] %34
V:3
 x4 | x4 | x4 | D2 z2 | x4 | z2 [DF]2 | C4 | A,2 G,2 | x4 | x4 | x4 | z2 =F,2 | [Ac]2 z C | x4 | %14
 x4 | F2 E2 | x4 | x4 | x4 | x4 | x4 | [Gd]2 z E | [DFA]2 A,[K:bass]B, | z2 .A,2 | x4 | x4 | x4 | %27
 D2 z2 | x4 | x4 | [^G,B,]2[K:bass] [=G,C]2 |[M:6/4] x12 |[M:2/4] x4 | x4 |] %34
V:4
 x4 | x4 | x4 | D,4 | x4 | x4 | x4 | x4 | x4 | x4 | x4 | F,2 z2 | x4 | x4 | x4 | A,,4 | x4 | x4 | %18
 x4 | x4 | x4 | z2 D,2 | x4 | z2 A,,2 | x4 | x4 | x4 | D,4 | x4 | x4 | z2 A,,2 |[M:6/4] x12 | %32
[M:2/4] x4 | x4 |] %34

